X: 2
T: Let the Bottle Circulate
T: Ridhladh am Botul M\`or
C: trad. Scotland
B: Ceol Sean's Gunn Collection p.45 #1
F: http://www.ceolsean.net/content/Gunn/Book03/Book03%2015.pdf
R: reel
Z: 2012 John Chambers <jc:trillian.mit.edu>
M: C|
L: 1/8
K: Hp
e |:\
{gfg}f2ed {gef}e2A{G}A | {gfg}f2ed {g}B{d}A{g}B<{d}B |\
{gfg}f2ed {gef}e2A{G}A | {g}dB{e}GB {g}A{d}A{g}A<{d}A :|
|:\
{g}A{GdG}A{e}AB {Gdc}d2{g}Ad | {g}BABc {dc}d2{g}GB |\
{g}A{GdG}A{e}AB {Gdc}d2{g}Ae | {gf}g2ea B{d}A{g}B<{d}B :|
